X: 3
T: Music In The Glen
R: reel
M: 4/4
L: 1/8
K: Gmaj
|:G2BG EGDc|BDGB AGAB|1 cdec BBdB|BAAG AGEF|2 cdec ABBB|BABG AGEF|GABG EGDc|BDGB AGAB|cdef g2ge|dcBA G2|D2:||BG dG egdA|AGdB cAFA|BG dG eg de|gdBG AGEG||AG dG egde|ggfg a~f3|g2fg (3efg dB| BABG AGEG|


Tune 303	Setting 25660

